Gruvbox-Plus-Dark/actions/22/kt-speed-limits.svg

<svg xmlns="http://www.w3.org/2000/svg" width="22" height="22" viewBox="0 0 22 22">
 <defs>
  <style id="current-color-scheme" type="text/css">
   .ColorScheme-Text { color:#ebdbb2; } .ColorScheme-Highlight { color:#458588; }
  </style>
 </defs>
 <path style="fill:currentColor" class="ColorScheme-Text" d="M 8.7792969 1.9980469 C 8.7277409 1.9924975 8.6764838 2.007907 8.6367188 2.0429688 C 8.5969537 2.0780586 8.5733267 2.1286048 8.5683594 2.1835938 L 8.3417969 4.6699219 C 8.3314439 4.7843281 8.4108322 4.8873668 8.5175781 4.8984375 C 9.135936 4.9626474 9.731228 5.1414298 10.289062 5.4296875 C 10.315599 5.4434207 10.346059 5.4492187 10.375 5.4492188 C 10.396595 5.4492188 10.416689 5.4452635 10.4375 5.4375 C 10.486102 5.4193105 10.526475 5.3817511 10.548828 5.3320312 L 11.560547 3.0820312 C 11.607162 2.9784995 11.567331 2.8545756 11.470703 2.8046875 C 10.623376 2.3669058 9.7173436 2.0955248 8.7792969 1.9980469 z M 6.9160156 2.0351562 C 5.9824657 2.170891 5.0877876 2.4800573 4.2558594 2.953125 C 4.1611397 3.0069929 4.1255848 3.1327771 4.1757812 3.234375 L 5.2675781 5.4414062 C 5.3024542 5.5118942 5.3698839 5.5507813 5.4394531 5.5507812 C 5.4701462 5.5507812 5.5003293 5.5438236 5.5292969 5.5273438 C 6.0773274 5.2157676 6.6665261 5.0132343 7.28125 4.9238281 C 7.3874992 4.9083852 7.461671 4.8033829 7.4472656 4.6894531 L 7.1347656 2.2128906 C 7.1203603 2.0989889 7.0220034 2.0198255 6.9160156 2.0351562 z M 12.902344 3.8320312 C 12.851128 3.8377207 12.803955 3.8653779 12.771484 3.9082031 L 11.300781 5.8457031 C 11.26831 5.8885564 11.254458 5.943142 11.259766 5.9980469 C 11.265021 6.0529518 11.290104 6.1038063 11.330078 6.1386719 C 11.812958 6.5596094 12.218414 7.0612299 12.537109 7.6328125 C 12.573502 7.6980033 12.638986 7.734375 12.705078 7.734375 C 12.738987 7.734375 12.773498 7.7250894 12.804688 7.7050781 L 14.804688 6.4238281 C 14.848845 6.3954928 14.879977 6.3504346 14.892578 6.296875 C 14.905127 6.2433154 14.897551 6.1860936 14.871094 6.1386719 C 14.389208 5.2744593 13.774732 4.5132501 13.044922 3.8769531 C 13.004948 3.8421436 12.953769 3.8265099 12.902344 3.8320312 z M 2.8613281 4.0390625 C 2.8096937 4.0355311 2.7593701 4.0534086 2.7207031 4.0898438 C 2.0138478 4.7559334 1.4269452 5.5406693 0.9765625 6.4238281 C 0.95188256 6.4722868 0.94645372 6.5310414 0.9609375 6.5839844 C 0.97542128 6.6369554 1.0075314 6.6805738 1.0527344 6.7070312 L 3.0976562 7.90625 C 3.1272251 7.9235987 3.1599027 7.9316406 3.1914062 7.9316406 C 3.2600865 7.9316406 3.3260599 7.8914363 3.3613281 7.8222656 C 3.6590037 7.2385193 4.0480396 6.7199093 4.515625 6.2792969 C 4.5543704 6.2429178 4.5768101 6.1918479 4.5800781 6.1367188 C 4.5833984 6.0816457 4.5671903 6.0258269 4.5332031 5.984375 L 2.9941406 4.109375 C 2.9601534 4.0679231 2.9127534 4.0426219 2.8613281 4.0390625 z M 15.392578 7.8300781 L 13.167969 8.5761719 C 13.065615 8.610533 13.008963 8.728221 13.041016 8.8378906 C 13.200599 9.3840247 13.28125 9.9543054 13.28125 10.533203 C 13.28125 10.618433 13.279417 10.705218 13.275391 10.798828 C 13.272985 10.853957 13.291453 10.908439 13.326172 10.949219 C 13.360865 10.990026 13.409512 11.015056 13.460938 11.017578 L 15.789062 11.132812 C 15.792147 11.132953 15.793842 11.132812 15.796875 11.132812 C 15.899987 11.132812 15.985372 11.045141 15.990234 10.933594 C 15.996221 10.79472 16 10.663725 16 10.533203 C 15.999948 9.6583683 15.876911 8.7951349 15.634766 7.9667969 C 15.602661 7.8570712 15.494827 7.7956329 15.392578 7.8300781 z M 4.6132812 8.0703125 C 4.5710423 8.0755746 4.530387 8.0956522 4.4980469 8.1289062 C 4.4333143 8.1953583 4.4187411 8.300068 4.4609375 8.3847656 L 6.1816406 11.841797 C 6.1753138 11.908389 6.171875 11.977097 6.171875 12.044922 C 6.171875 12.566448 6.3611015 13.055077 6.7050781 13.423828 C 7.0490809 13.792607 7.5056999 13.996094 7.9921875 13.996094 C 8.4786751 13.996094 8.9372734 13.792551 9.28125 13.423828 C 9.6252528 13.055077 9.8144531 12.566448 9.8144531 12.044922 C 9.8144531 11.523395 9.6252266 11.032814 9.28125 10.664062 C 8.9377358 10.295807 8.4798698 10.092342 7.9941406 10.091797 L 7.9921875 10.091797 C 7.9593477 10.091841 7.9251171 10.091881 7.8925781 10.09375 L 4.7382812 8.0996094 C 4.6996796 8.0751558 4.6555202 8.0650504 4.6132812 8.0703125 z M 0.51757812 8.1367188 C 0.46787838 8.1223129 0.41382072 8.1287835 0.36914062 8.15625 C 0.32446053 8.1837165 0.29281332 8.2299238 0.27929688 8.2832031 C 0.094484939 9.013867 -7.4014868e-17 9.7705885 0 10.533203 C 0 10.663725 0.003726361 10.79472 0.009765625 10.933594 C 0.014602265 11.045169 0.099960776 11.132813 0.203125 11.132812 C 0.2061577 11.132812 0.20985792 11.132981 0.21289062 11.132812 L 2.5390625 11.017578 C 2.5904877 11.015056 2.6391873 10.989998 2.6738281 10.949219 C 2.7085212 10.908439 2.7270146 10.853957 2.7246094 10.798828 C 2.7205571 10.70519 2.71875 10.618405 2.71875 10.533203 C 2.71875 10.028157 2.7804081 9.5287432 2.9023438 9.046875 C 2.930344 8.9359441 2.869103 8.8211447 2.765625 8.7910156 L 0.51757812 8.1367188 z" transform="translate(3 3)"/>
</svg>

<svg width="22" height="22" version="1.1" viewBox="0 0 22 22" xmlns="http://www.w3.org/2000/svg">
  <defs>
    <style type="text/css">.ColorScheme-Text { color:#ebdbb2; } .ColorScheme-Highlight { color:#458588; }</style>
  </defs>
  <path class="ColorScheme-Text" transform="translate(3 3)" d="m8.779 1.998c-0.05156-0.005549-0.1028 0.00986-0.1426 0.04492-0.03977 0.03509-0.06339 0.08564-0.06836 0.1406l-0.2266 2.486c-0.01035 0.1144 0.06904 0.2174 0.1758 0.2285 0.6184 0.06421 1.214 0.243 1.771 0.5312 0.02654 0.01373 0.057 0.01953 0.08594 0.01953 0.0216 0 0.04169-0.003955 0.0625-0.01172 0.0486-0.01819 0.08898-0.05575 0.1113-0.1055l1.012-2.25c0.04662-0.1035 0.006784-0.2275-0.08984-0.2773-0.8473-0.4378-1.753-0.7092-2.691-0.8066zm-1.863 0.03711c-0.9335 0.1357-1.828 0.4449-2.66 0.918-0.09472 0.05387-0.1303 0.1797-0.08008 0.2812l1.092 2.207c0.03488 0.07049 0.1023 0.1094 0.1719 0.1094 0.03069 0 0.06088-0.006958 0.08984-0.02344 0.548-0.3116 1.137-0.5141 1.752-0.6035 0.1062-0.01544 0.1804-0.1204 0.166-0.2344l-0.3125-2.477c-0.01441-0.1139-0.1128-0.1931-0.2188-0.1777zm5.986 1.797c-0.05122 0.00569-0.09839 0.03335-0.1309 0.07617l-1.471 1.938c-0.03247 0.04285-0.04632 0.09744-0.04102 0.1523 0.005255 0.0549 0.03034 0.1058 0.07031 0.1406 0.4829 0.4209 0.8883 0.9226 1.207 1.494 0.03639 0.06519 0.1019 0.1016 0.168 0.1016 0.03391 0 0.06842-0.009286 0.09961-0.0293l2-1.281c0.04416-0.02834 0.07529-0.07339 0.08789-0.127 0.01255-0.05356 0.004973-0.1108-0.02148-0.1582-0.4819-0.8642-1.096-1.625-1.826-2.262-0.03997-0.03481-0.09115-0.05044-0.1426-0.04492zm-10.04 0.207c-0.05163-0.003531-0.102 0.01435-0.1406 0.05078-0.7069 0.6661-1.294 1.451-1.744 2.334-0.02468 0.04846-0.03011 0.1072-0.01562 0.1602 0.01448 0.05297 0.04659 0.09659 0.0918 0.123l2.045 1.199c0.02957 0.01735 0.06225 0.02539 0.09375 0.02539 0.06868 0 0.1347-0.0402 0.1699-0.1094 0.2977-0.5837 0.6867-1.102 1.154-1.543 0.03875-0.03638 0.06119-0.08745 0.06445-0.1426 0.00332-0.05507-0.01289-0.1109-0.04688-0.1523l-1.539-1.875c-0.03399-0.04145-0.08139-0.06675-0.1328-0.07031zm12.53 3.791-2.225 0.7461c-0.1024 0.03436-0.159 0.152-0.127 0.2617 0.1596 0.5461 0.2402 1.116 0.2402 1.695 0 0.08523-0.001833 0.172-0.005859 0.2656-0.002406 0.05513 0.01606 0.1096 0.05078 0.1504 0.03469 0.04081 0.08334 0.06584 0.1348 0.06836l2.328 0.1152c0.003085 1.41e-4 0.00478 0 0.007813 0 0.1031 0 0.1885-0.08767 0.1934-0.1992 0.005987-0.1389 0.009766-0.2699 0.009766-0.4004-5.2e-5 -0.8748-0.1231-1.738-0.3652-2.566-0.0321-0.1097-0.1399-0.1712-0.2422-0.1367zm-10.78 0.2402c-0.04224 0.005262-0.08289 0.02534-0.1152 0.05859-0.06473 0.06645-0.07931 0.1712-0.03711 0.2559l1.721 3.457c-0.006327 0.06659-0.009766 0.1353-0.009766 0.2031 0 0.5215 0.1892 1.01 0.5332 1.379 0.344 0.3688 0.8006 0.5723 1.287 0.5723s0.9451-0.2035 1.289-0.5723c0.344-0.3688 0.5332-0.8574 0.5332-1.379 0-0.5215-0.1892-1.012-0.5332-1.381-0.3435-0.3683-0.8014-0.5717-1.287-0.5723h-0.001953c-0.03284 4.4e-5 -0.06707 8.4e-5 -0.09961 0.001953l-3.154-1.994c-0.0386-0.02445-0.08276-0.03456-0.125-0.0293zm-4.096 0.06641c-0.0497-0.01441-0.1038-0.007935-0.1484 0.01953-0.04468 0.02747-0.07633 0.07367-0.08984 0.127-0.1848 0.7307-0.2793 1.487-0.2793 2.25 0 0.1305 0.003726 0.2615 0.009766 0.4004 0.004837 0.1116 0.0902 0.1992 0.1934 0.1992 0.003033 0 0.006733 1.69e-4 0.009766 0l2.326-0.1152c0.05143-0.002522 0.1001-0.02758 0.1348-0.06836 0.03469-0.04078 0.05319-0.09526 0.05078-0.1504-0.004052-0.09364-0.005859-0.1804-0.005859-0.2656 0-0.505 0.06166-1.004 0.1836-1.486 0.028-0.1109-0.03324-0.2257-0.1367-0.2559l-2.248-0.6543z" fill="currentColor"/>
</svg>
